img/header-logo.svg

<svg width="33" height="31" viewBox="0 0 33 31" fill="none" xmlns="http://www.w3.org/2000/svg">
<path d="M7.38082 6.56008C7.34627 6.49222 7.39562 6.41202 7.47212 6.41202H25.6878C29.177 6.41202 31.8691 3.59897 32.1134 0.109808C32.1171 0.0505855 32.0702 0 32.011 0H6.36294C2.84169 0 -0.70546 2.97961 0.121181 6.39845C0.123649 6.40709 0.126117 6.41572 0.129818 6.42313L11.1414 28.0688C11.1427 28.0725 11.1451 28.0762 11.1476 28.0787C11.8829 29.2347 13.1365 30.26 16.026 30.26C18.5948 30.26 20.2554 29.2434 20.9784 28.0787C20.9809 28.075 20.9821 28.0725 20.9846 28.0688L30.6563 9.04123C30.6909 8.97337 30.6415 8.89318 30.565 8.89318H24.9698C24.0802 8.93143 23.3078 9.35708 23.0278 9.94684L16.1161 23.4421C16.0778 23.5161 15.9717 23.5161 15.9347 23.4421L7.38082 6.56008Z" fill="#009245"/>
</svg>

<svg width="33" height="31" fill="none" xmlns="http://www.w3.org/2000/svg"><path d="M7.38 6.56a.102.102 0 01.092-.148h18.216c3.489 0 6.181-2.813 6.425-6.302a.103.103 0 00-.102-.11H6.363C2.842 0-.705 2.98.12 6.398a.145.145 0 00.009.025L11.14 28.07a.028.028 0 00.007.01c.735 1.156 1.989 2.181 4.878 2.181 2.569 0 4.23-1.017 4.952-2.181l.007-.01 9.672-19.03a.102.102 0 00-.091-.148H24.97c-.89.038-1.662.464-1.942 1.054l-6.912 13.495a.102.102 0 01-.181 0L7.38 6.56z" fill="#009245"/></svg>
